X:1
T: Twister
C:Bruce Shawyer
R:Reel
Q:232
K:A
M:4/4
L:1/8
|:"A"AB cA "E7"Bc dB|"F#m"cB Ac "E7"B2E2|"A"AB cA "E7"Bc dB|"F#m"cB Ac "E7"B4|
"A"AB cA "E7"Bc dB|"F#m"cd ec "Bm"d2f2|"F#m"ag fe "Bm"dc BA|"E7"GA BG "A"A4:|
|:"A"cd ec "Bm"de fd|"C#mo"ef ge "F#m"a4|"D"ag fe "Bm"fe dc|"Bm"dc BA "E7"B4|
"A"cd ec "Bm"de fd|"C#mo"ef ge "F#m"a4|1"Bm"ba gf gf ed|"E7"ef ge "A"a4:|2"F#m"ag fe "Bm"dc BA|"E7"GA BG "A"A4||
